public/icons/secret_lg_icon.svg

<svg width="161" height="160" viewBox="0 0 161 160" fill="none" xmlns="http://www.w3.org/2000/svg">
<rect x="0.5" width="160" height="160" rx="8" fill="#F7F7FC"/>
<circle cx="80.1225" cy="80.3774" r="40.3774" fill="#121314"/>
<path d="M108.675 51.8412C101.045 44.203 90.9089 40 80.1265 40C57.8586 40 39.7451 58.1296 39.7451 80.4137C39.7451 102.698 57.8586 120.827 80.1265 120.827C90.9089 120.827 101.053 116.624 108.675 108.986C116.305 101.348 120.5 91.2042 120.5 80.4137C120.5 69.6233 116.305 59.4713 108.675 51.8412ZM80.1265 118.031C59.4024 118.031 42.5417 101.154 42.5417 80.4137C42.5417 59.6734 59.4024 42.7966 80.1265 42.7966C100.851 42.7966 117.711 59.6734 117.711 80.4137C117.711 101.154 100.851 118.031 80.1265 118.031Z" fill="#FCFCFC"/>
<path d="M93.382 81.3674C90.7955 79.0557 87.4088 77.5119 84.1272 76.0166L84.103 76.0085C78.3157 73.3655 73.3125 71.0781 73.6682 65.6707C73.8217 63.6096 75.317 62.3649 76.5456 61.694C77.9278 60.9342 79.7626 60.4816 81.4599 60.4816C81.662 60.4816 81.8641 60.4897 82.0581 60.4978C86.9966 60.8292 90.8925 62.9226 94.6995 67.2711L94.9258 67.5378L95.1925 67.3115L96.6798 66.0183L96.9465 65.7839L96.7121 65.5171C92.4686 60.6513 87.8615 58.2023 82.2278 57.8224C81.9853 57.7981 81.7267 57.79 81.4438 57.79C81.274 57.79 81.0881 57.79 80.8941 57.7981H80.6517C76.9578 57.7981 72.9084 59.0105 69.8289 61.0474C66.1512 63.4803 64.0901 66.8265 64.0335 70.4719C63.888 79.3386 71.1383 82.3212 77.5317 84.9642L77.5479 84.9723L77.6125 84.9966C83.2705 87.3406 88.1525 89.3612 88.0474 94.7767C87.9989 98.3493 82.8906 100.321 79.3827 100.321H79.2372H78.8896V100.33C73.6601 100.176 68.9883 97.9209 65.0035 93.6451L64.761 93.3864L64.5023 93.6208L63.0555 94.9626L62.7969 95.2051L63.0394 95.4637C67.5657 100.338 73.1509 102.956 79.1968 103.029H79.4716C83.3755 103.029 87.619 101.978 90.8198 100.208C94.8288 98.0179 97.1647 94.8252 97.4072 91.2203C97.682 87.2597 96.3645 84.0347 93.382 81.3674ZM74.6139 73.6565C76.9174 75.6287 80.0374 77.0431 83.0522 78.4091L83.1088 78.4334C86.3015 79.9044 89.3245 81.2947 91.5149 83.2264C93.9397 85.3603 94.9662 87.8336 94.748 91.0101C94.5459 94.1543 92.21 96.2558 90.0842 97.5248C90.4964 96.6842 90.7228 95.7709 90.747 94.8009C90.7955 91.5355 89.5427 88.9248 86.9077 86.8071C84.6041 84.9561 81.5488 83.7033 78.5906 82.4828C72.4396 79.9529 66.6281 77.5604 66.7332 70.4961C66.7655 67.7803 68.3982 65.21 71.3323 63.2621C71.4292 63.1974 71.5262 63.1327 71.6313 63.0681C71.2838 63.8278 71.0898 64.62 71.0413 65.4525C70.8069 68.726 71.9789 71.4095 74.6139 73.6565Z" fill="#FCFCFC"/>
</svg>

<svg width="161" height="160" fill="none" xmlns="http://www.w3.org/2000/svg"><rect x=".5" width="160" height="160" rx="8" fill="#F7F7FC"/><circle cx="80.123" cy="80.377" r="40.377" fill="#121314"/><path d="M108.675 51.841C101.045 44.203 90.909 40 80.126 40c-22.267 0-40.38 18.13-40.38 40.414 0 22.284 18.113 40.413 40.38 40.413 10.783 0 20.927-4.203 28.549-11.841 7.63-7.638 11.825-17.782 11.825-28.572s-4.195-20.943-11.825-28.573Zm-28.549 66.19c-20.724 0-37.584-16.877-37.584-37.617s16.86-37.617 37.584-37.617c20.725 0 37.585 16.876 37.585 37.617 0 20.74-16.86 37.617-37.585 37.617Z" fill="#FCFCFC"/><path d="M93.382 81.367c-2.587-2.311-5.973-3.855-9.255-5.35l-.024-.008c-5.787-2.644-10.79-4.93-10.435-10.338.154-2.061 1.649-3.306 2.878-3.977 1.382-.76 3.217-1.212 4.914-1.212.202 0 .404.008.598.016 4.939.331 8.834 2.425 12.641 6.773l.227.267.266-.227 1.488-1.293.266-.234-.234-.267c-4.243-4.866-8.85-7.315-14.484-7.695a7.903 7.903 0 0 0-.784-.032c-.17 0-.356 0-.55.008h-.242c-3.694 0-7.744 1.212-10.823 3.25-3.678 2.432-5.739 5.778-5.795 9.424-.146 8.867 7.104 11.85 13.498 14.492l.016.008.064.025c5.659 2.344 10.54 4.364 10.435 9.78-.048 3.572-5.156 5.544-8.664 5.544h-.493v.009c-5.23-.154-9.902-2.41-13.886-6.685l-.243-.259-.259.235-1.446 1.342-.26.242.243.259c4.527 4.874 10.112 7.492 16.158 7.565h.275c3.904 0 8.147-1.051 11.348-2.821 4.009-2.19 6.345-5.383 6.587-8.988.275-3.96-1.042-7.185-4.025-9.853Zm-18.768-7.71c2.303 1.972 5.423 3.386 8.438 4.752l.057.024c3.193 1.471 6.216 2.862 8.406 4.793 2.425 2.134 3.451 4.608 3.233 7.784-.202 3.144-2.538 5.246-4.664 6.515.412-.84.639-1.754.663-2.724.049-3.266-1.204-5.876-3.84-7.994-2.303-1.85-5.358-3.104-8.316-4.324-6.151-2.53-11.963-4.923-11.858-11.987.032-2.716 1.665-5.286 4.6-7.234.096-.065.193-.13.298-.194a6.593 6.593 0 0 0-.59 2.385c-.234 3.273.938 5.956 3.573 8.203Z" fill="#FCFCFC"/></svg>
